icons/purgatory/icon_card-notifications_m_black.svg

<?xml version="1.0" encoding="UTF-8"?>
<svg width="24px" height="24px" viewBox="0 0 24 24" version="1.1" xmlns="http://www.w3.org/2000/svg" xmlns:xlink="http://www.w3.org/1999/xlink">
    <!-- Generator: Sketch 47.1 (45422) - http://www.bohemiancoding.com/sketch -->
    <title>icon_card-notifications_m_black</title>
    <desc>Created with Sketch.</desc>
    <defs></defs>
    <g id="October-2017" stroke="none" stroke-width="1" fill="none" fill-rule="evenodd" opacity="0.300000012">
        <g id="icon_card-notifications_m_black">
            <g>
                <rect id="_ph_" x="0" y="0" width="24" height="24"></rect>
                <path d="M13.515409,19 C13.3259686,19 13.0710427,18.9280831 12.7927291,18.6491859 L5.35076379,11.2078348 C4.94440255,10.8014752 4.97714532,10.4453989 5.03269111,10.2688225 C5.08882158,10.0922461 5.26598339,9.78236035 5.83138098,9.68296303 L8.1029111,9.28128092 L10.1054827,7.27930197 C10.9304837,6.45430422 12.0314596,6 13.2061067,6 C14.3807538,6 15.4823144,6.45430422 16.3073154,7.27930197 L16.7206929,7.69267788 C17.545694,8.51767563 18,9.61923181 18,10.7938742 C18,11.9685167 17.545694,13.0694882 16.7206929,13.8944859 L14.718706,15.8970496 L14.3170223,18.1691553 C14.2176246,18.733966 13.9077376,18.9122965 13.7311605,18.9672574 C13.6756147,18.9847981 13.6025282,19 13.515409,19 Z M9.48512402,16.9956823 C8.79986449,17.6809391 7.68953355,17.6809391 7.00427401,16.9956823 C6.31901447,16.3104255 6.31901447,15.2000989 7.00427401,14.5148421 L9.48512402,16.9956823 Z" id="Combined-Shape" fill="#0B1F35"></path>
            </g>
        </g>
    </g>
</svg>

<svg width="24" height="24" viewBox="0 0 24 24" xmlns="http://www.w3.org/2000/svg">
  <g fill="none" fill-rule="evenodd" opacity=".3">
    <path d="M0 0h24v24H0z"/>
    <path d="M13.515 19c-.19 0-.444-.072-.722-.35L5.35 11.207c-.406-.407-.373-.763-.317-.94.056-.176.233-.486.798-.585l2.273-.402 2.002-2C10.93 6.453 12.03 6 13.205 6c1.176 0 2.277.454 3.102 1.28l.414.413c.826.825 1.28 1.926 1.28 3.1 0 1.176-.454 2.276-1.28 3.1l-2 2.004-.403 2.272c-.1.564-.41.742-.586.797-.054.018-.127.033-.215.033zm-4.03-2.004c-.685.685-1.795.685-2.48 0-.686-.686-.686-1.796 0-2.48l2.48 2.48z" fill="#0B1F35"/>
  </g>
</svg>
